X:2988
T:Jenny Nettle. JMT081
O:england
M:4/4
L:1/8
S:J.Moore,Tyneside,1841.(56a)
R:Reel
A:Northumbria
K:C
B|c2B-cA2a2|efge dBGB|c2BcA2a2|gef^de2A:|
|:B|cdef gage|gage dBGB|cdef gagf|eaa^ga2A:|]


